!!!ONB: MCCC : IJH0450_02 : Extracted Monophonic Melody
!!!COM: Haydn, Joseph
!!!OPR: String Quartet in E-flat major
!!!OMV: 2
!!!SCT: Hob.III:80 ; Op.76 No.6
!!!ODT: 1796///
**kern
*thru
*k[b-e-a-]
*E-:
*clefF
*M3/4
4b-
4ee-
4gg
=1
4gg
8.aa-
16gg
8.ff
16ee-
=2
4dd
4ff
4bb-
=3
4aa-
8.gg
16ff
8.ee-
16dd
=4
4cc
4ccc
4ccc
=5
2dd
8ee-
16dd
16cc
=6
4b-
12aa-
12ff
12aa-
4gg
=7
4b-
12aa-
12ff
12aa-
4gg
=8
4bb-
8.aa-
16gg
8.ff
16ee-
=9
2dd
4r
=10
2.r
=11
2.r
=12
4ccc
4ccc
4ccc
=13
4ccc
8.ddd
16ccc
8.bb-
16aa
=14
4gg
4gg
12bb-
12aa
12gg
=15
8gg
8ff
4.ff
8bb-
=16
8gg
16ff
16ee-
4dd
4cc
=17
2b-
4r
=18
2.r
=19
2.r
=20
2.r
=21
2.r
=22
4aa-
4aa-
8aa-
8bb-
=23
8aa-
8gg
4gg
12ccc
12bb-
12aa-
=24
4gg
4eee-
12ff
12gg
12aa-
=25
8aa-
8gg
8ff
8ee-
8dd
8cc
=26
4b-
4g
4f
=27
2e-
4r
=28
2b-
4bb-
=29
4gg
4ff
4ee-
=30
4.dd
8ee-
8.ee-
32dd
32ee-
=31
4ff
16aa
8.bb-
16aa
8.bb-
=32
2b-
4bb-
=33
4gg
4ff
4ee-
=34
4.dd
8ee-
8.ee-
32dd
32ee-
=35
4ff
4r
4bb-
=36
8ff#
8gg
4.gg
8aa
=37
8bb-
8ff
8ddd
8aa
8bb-
8ff
=38
4ee-
4dd
4cc
=39
2b-
4r
=40
2f
4ff
=41
4dd
4cc
4b-
=42
4.a
8b-
8.b-
32a
32b-
=43
4cc
16ee
8.ff
16ee
8.ff
=44
2f
12cc
12dd
12ee-
=45
2d
12dd
12ee-
12ff
=46
4ff
12bb-
12aa
12gg
12ff
12ee-
12dd
=47
4cc
2r
=48
2b-
4bb-
=49
4gg
4ff
4ee-
=50
4.dd
8ee-
8.ee-
32dd
32ee-
=51
4ff
16aa
8.bb-
16aa
8.bb-
=52
2b-
4aa-
=53
8aa-
8gg
2gg
=54
8ff#
8gg
4.gg
8aa
=55
8bb-
8ff
8ddd
8aa
8bb-
8ff
=56
4ee-
4dd
4cc
=57
2b-
4r
==
*-
